src/app/components/images/Position_marker_1.svg

<svg width="43" height="43" fill="none" xmlns="http://www.w3.org/2000/svg"><mask id="a" style="mask-type:alpha" maskUnits="userSpaceOnUse" x="4" y="4" width="35" height="35"><circle cx="21.5" cy="21.5" r="17.5" fill="#E9ED38"/></mask><g mask="url(#a)"><path fill="#47473E" d="M-17.724-9.276H65.15v63.965h-82.874z"/><path d="M44.62 4C28.188 39.505 16.87 42.223-7.939 9.36l3.514 34.462 52.56-5.36L44.62 4z" fill="#000"/></g><g filter="url(#b)"><circle cx="21.5" cy="21.5" r="16.5" stroke="#433838" stroke-width="2"/></g><path d="m22.928 14.528-.096 9.264c0 1.68.04 2.56.12 2.64.272-.016.536-.024.792-.024.272 0 .424.016.456.048.08.336.12.824.12 1.464s-.04.96-.12.96h-.6c-1.504 0-2.848.088-4.032.264l-.648.096c-.08-.064-.12-.456-.12-1.176 0-.736.048-1.152.144-1.248l.984-.168c-.016-.224-.024-.64-.024-1.248L20 18.632c0-1.424-.056-2.192-.168-2.304-.016-.016-.088-.024-.216-.024s-.368.032-.72.096c-.336.048-.648.104-.936.168a4.619 4.619 0 0 1-.456.096c-.016 0-.024-.304-.024-.912 0-.608.08-.992.24-1.152.16-.16.96-.504 2.4-1.032 1.456-.544 2.344-.816 2.664-.816.048 0 .072.008.072.024.048.048.072.632.072 1.752z" fill="#fff"/><defs><filter id="b" x="0" y="0" width="43" height="43" filterUnits="userSpaceOnUse" color-interpolation-filters="sRGB"><feFlood flood-opacity="0" result="BackgroundImageFix"/><feBlend in="SourceGraphic" in2="BackgroundImageFix" result="shape"/><feGaussianBlur stdDeviation="2" result="effect1_foregroundBlur_44_448"/></filter></defs></svg>

<svg width="43" height="43" viewBox="0 0 43 43" fill="none" xmlns="http://www.w3.org/2000/svg">
<mask id="mask0_44_448" style="mask-type:alpha" maskUnits="userSpaceOnUse" x="4" y="4" width="35" height="35">
<circle cx="21.5" cy="21.5" r="17.5" fill="#E9ED38"/>
</mask>
<g mask="url(#mask0_44_448)">
<rect x="-17.7241" y="-9.27586" width="82.8736" height="63.9655" fill="#47473E"/>
<path d="M44.6204 3.99999C28.1879 39.5046 16.8689 42.2229 -7.93866 9.3595L-4.42453 43.8216L48.1346 38.4621L44.6204 3.99999Z" fill="black"/>
</g>
<g filter="url(#filter0_f_44_448)">
<circle cx="21.5" cy="21.5" r="16.5" stroke="#433838" stroke-width="2"/>
</g>
<path d="M22.928 14.528L22.832 23.792C22.832 25.472 22.872 26.352 22.952 26.432C23.224 26.416 23.488 26.408 23.744 26.408C24.016 26.408 24.168 26.424 24.2 26.456C24.28 26.792 24.32 27.28 24.32 27.92C24.32 28.56 24.28 28.88 24.2 28.88H23.6C22.096 28.88 20.752 28.968 19.568 29.144L18.92 29.24C18.84 29.176 18.8 28.784 18.8 28.064C18.8 27.328 18.848 26.912 18.944 26.816L19.928 26.648C19.912 26.424 19.904 26.008 19.904 25.4L20 18.632C20 17.208 19.944 16.44 19.832 16.328C19.816 16.312 19.744 16.304 19.616 16.304C19.488 16.304 19.248 16.336 18.896 16.4C18.56 16.448 18.248 16.504 17.96 16.568C17.688 16.632 17.536 16.664 17.504 16.664C17.488 16.664 17.48 16.36 17.48 15.752C17.48 15.144 17.56 14.76 17.72 14.6C17.88 14.44 18.68 14.096 20.12 13.568C21.576 13.024 22.464 12.752 22.784 12.752C22.832 12.752 22.856 12.76 22.856 12.776C22.904 12.824 22.928 13.408 22.928 14.528Z" fill="white"/>
<defs>
<filter id="filter0_f_44_448" x="0" y="0" width="43" height="43" filterUnits="userSpaceOnUse" color-interpolation-filters="sRGB">
<feFlood flood-opacity="0" result="BackgroundImageFix"/>
<feBlend mode="normal" in="SourceGraphic" in2="BackgroundImageFix" result="shape"/>
<feGaussianBlur stdDeviation="2" result="effect1_foregroundBlur_44_448"/>
</filter>
</defs>
</svg>
